svgs/sharp-light/diagram-project.svg

<svg xmlns="http://www.w3.org/2000/svg" viewBox="0 0 576 512"><!--! Font Awesome Pro 6.6.0 by @fontawesome - https://fontawesome.com License - https://fontawesome.com/license (Commercial License) Copyright 2024 Fonticons, Inc. --><path d="M160 64l0 48 0 32 0 48L32 192 32 64l128 0zm32 128l0-48 192 0 0 48 0 32 32 0 128 0 32 0 0-32 0-128 0-32-32 0L416 32l-32 0 0 32 0 48-192 0 0-48 0-32-32 0L32 32 0 32 0 64 0 192l0 32 32 0 128 0 7.4 0L224 308.8l0 11.2 0 128 0 32 32 0 128 0 32 0 0-32 0-128 0-32-32 0-128 0-7.4 0L192 203.2l0-11.2zm224 0l0-48 0-32 0-48 128 0 0 128-128 0zM384 320l0 128-128 0 0-128 128 0z"/></svg>

<svg xmlns="http://www.w3.org/2000/svg" viewBox="0 0 576 512"><!--! Font Awesome Pro 6.4.2 by @fontawesome - https://fontawesome.com License - https://fontawesome.com/license (Commercial License) Copyright 2023 Fonticons, Inc. --><path d="M160 64v48 32 48H32V64H160zm32 128V144H384v48 32h32H544h32V192 64 32H544 416 384V64v48H192V64 32H160 32 0V64 192v32H32 160h7.4L224 308.8V320 448v32h32H384h32V448 320 288H384 256h-7.4L192 203.2V192zm224 0V144 112 64H544V192H416zM384 320V448H256V320H384z"/></svg>
